usr/share/icons/biglinux-icons-material/scalable/apps/google-chrome-unstable.svg

<?xml version="1.0" encoding="UTF-8" standalone="no"?>
<svg
   width="24"
   height="24"
   version="1"
   id="svg4492"
   sodipodi:docname="google-chrome-unstable.svg"
   inkscape:version="1.2.2 (b0a8486541, 2022-12-01)"
   xmlns:inkscape="http://www.inkscape.org/namespaces/inkscape"
   xmlns:sodipodi="http://sodipodi.sourceforge.net/DTD/sodipodi-0.dtd"
   xmlns="http://www.w3.org/2000/svg"
   xmlns:svg="http://www.w3.org/2000/svg">
  <defs
     id="defs4496">
    <radialGradient
       fx="0"
       fy="0"
       cx="0"
       cy="0"
       r="1"
       gradientUnits="userSpaceOnUse"
       gradientTransform="matrix(0,16.5,-16.5,0,8.999651,0.749985)"
       spreadMethod="pad"
       id="radialGradient868-3">
      <stop
         style="stop-opacity:1;stop-color:#fafafa"
         offset="0"
         id="stop864-6" />
      <stop
         style="stop-opacity:1;stop-color:#c0c0c0"
         offset="1"
         id="stop866-7" />
    </radialGradient>
  </defs>
  <sodipodi:namedview
     id="namedview4494"
     pagecolor="#ffffff"
     bordercolor="#000000"
     borderopacity="0.25"
     inkscape:showpageshadow="2"
     inkscape:pageopacity="0.0"
     inkscape:pagecheckerboard="0"
     inkscape:deskcolor="#d1d1d1"
     showgrid="false"
     inkscape:zoom="13.25"
     inkscape:cx="-0.98113208"
     inkscape:cy="5.3962264"
     inkscape:window-width="2560"
     inkscape:window-height="1000"
     inkscape:window-x="1680"
     inkscape:window-y="0"
     inkscape:window-maximized="1"
     inkscape:current-layer="svg4492" />
  <g
     id="g854"
     transform="matrix(1.3333333,0,0,1.3333333,-4.5225532e-4,-3.504174e-5)">
    <g
       id="g856">
      <g
         id="g862">
        <path
           d="m 7.195,0.836 c 0.09,0 0.176,-0.012 0.258,-0.035 1.078,-0.071 2.156,-0.067 3.231,0.008 0.976,0.078 1.921,0.289 2.836,0.636 1.519,0.625 2.558,1.711 3.121,3.254 0.316,0.93 0.507,1.887 0.566,2.867 0.078,1.235 0.051,2.465 -0.086,3.696 -0.105,0.863 -0.328,1.691 -0.672,2.488 -0.637,1.383 -1.672,2.336 -3.101,2.859 C 12.191,17 11,17.207 9.773,17.227 8.398,17.301 7.035,17.195 5.684,16.918 3.203,16.367 1.668,14.852 1.09,12.375 0.844,11.262 0.73,10.133 0.754,8.992 0.727,7.781 0.855,6.582 1.141,5.402 1.75,3.09 3.219,1.656 5.547,1.102 6.09,0.969 6.641,0.879 7.195,0.836 Z"
           style="fill:url(#radialGradient868-3);fill-rule:evenodd;stroke:none"
           id="path870" />
      </g>
    </g>
  </g>
  <path
     d="M 6.0019981,7.5038985 C 5.0225333,8.8052071 4.5000591,10.394922 4.5000591,12.022254 4.4889131,16.168608 7.857826,19.520802 12,19.499903 l 2.623516,-5.378 -4.8708511,-0.99479 z"
     style="fill:#f66f6f;fill-opacity:1;fill-rule:evenodd;stroke:none;stroke-width:1.39327"
     id="path872" />
  <path
     d="M 12.376181,8.6254761 14.623516,14.101004 12,19.499903 c 4.147747,0.01114 7.511087,-3.352194 7.499941,-7.499941 0,-1.170342 -0.271688,-2.3295379 -0.805307,-3.3744859 z"
     style="fill:#f69696;fill-opacity:1;fill-rule:evenodd;stroke:none;stroke-width:1.39327"
     id="path874" />
  <path
     d="M 12,4.500021 C 9.6384172,4.4944479 7.4119814,5.6104525 6.0019981,7.5038985 l 3.7450938,5.6232145 4.8764241,0.973891 -2.247335,-5.4755279 h 6.318453 C 17.426764,6.0897352 14.829719,4.4944479 12,4.500021 Z"
     style="fill:#db4437;fill-opacity:1;fill-rule:evenodd;stroke:none;stroke-width:1.39327"
     id="path876" />
  <path
     d="m 12,8.6421952 c 1.855828,-0.00557 3.36334,1.5019388 3.357767,3.3577668 C 15.363335,13.855789 13.855828,15.363301 12,15.357728 10.144172,15.363297 8.6366603,13.855789 8.6422333,11.999962 8.6366647,10.144134 10.144172,8.6366221 12,8.6421952 Z"
     style="fill:#ffffff;fill-opacity:1;fill-rule:nonzero;stroke:none;stroke-width:1.39327"
     id="path998" />
  <path
     d="m 12,9.4795471 c 1.393264,0 2.524595,1.1271509 2.520415,2.5204149 0,1.393264 -1.127151,2.520414 -2.520415,2.520414 -1.393264,0 -2.5204147,-1.12715 -2.5204147,-2.520414 0,-1.393264 1.1271507,-2.5204149 2.5204147,-2.5204149 z"
     style="fill:#e64646;fill-opacity:1;fill-rule:nonzero;stroke:none;stroke-width:1.39327"
     id="path1000" />
</svg>

<svg xmlns="http://www.w3.org/2000/svg" width="24" height="24" version="1"><defs><radialGradient id="a" cx="0" cy="0" r="1" fx="0" fy="0" gradientTransform="matrix(0 16.5 -16.5 0 9 .75)" gradientUnits="userSpaceOnUse" spreadMethod="pad"><stop offset="0" style="stop-opacity:1;stop-color:#fafafa"/><stop offset="1" style="stop-opacity:1;stop-color:silver"/></radialGradient></defs><path d="M7.195.836c.09 0 .176-.012.258-.035a23.86 23.86 0 0 1 3.231.008 10.26 10.26 0 0 1 2.836.636c1.519.625 2.558 1.711 3.121 3.254.316.93.507 1.887.566 2.867a21.227 21.227 0 0 1-.086 3.696 8.976 8.976 0 0 1-.672 2.488c-.637 1.383-1.672 2.336-3.101 2.859a11.693 11.693 0 0 1-3.575.618 15.998 15.998 0 0 1-4.089-.309c-2.481-.551-4.016-2.066-4.594-4.543a14.244 14.244 0 0 1-.336-3.383c-.027-1.211.101-2.41.387-3.59.609-2.312 2.078-3.746 4.406-4.3A10.27 10.27 0 0 1 7.195.836Z" style="fill:url(#a);fill-rule:evenodd;stroke:none" transform="matrix(1.33333 0 0 1.33333 0 0)"/><path d="M6.002 7.504A7.514 7.514 0 0 0 4.5 12.022 7.458 7.458 0 0 0 12 19.5l2.624-5.378-4.871-.995z" style="fill:#f66f6f;fill-opacity:1;fill-rule:evenodd;stroke:none;stroke-width:1.39327"/><path d="m12.376 8.625 2.248 5.476L12 19.5a7.479 7.479 0 0 0 7.5-7.5c0-1.17-.272-2.33-.805-3.375z" style="fill:#f69696;fill-opacity:1;fill-rule:evenodd;stroke:none;stroke-width:1.39327"/><path d="M12 4.5a7.46 7.46 0 0 0-5.998 3.004l3.745 5.623 4.877.974-2.248-5.476h6.319A7.47 7.47 0 0 0 12 4.5Z" style="fill:#db4437;fill-opacity:1;fill-rule:evenodd;stroke:none;stroke-width:1.39327"/><path d="M12 8.642A3.349 3.349 0 0 1 15.358 12 3.349 3.349 0 0 1 12 15.358 3.349 3.349 0 0 1 8.642 12 3.349 3.349 0 0 1 12 8.642Z" style="fill:#fff;fill-opacity:1;fill-rule:nonzero;stroke:none;stroke-width:1.39327"/><path d="M12 9.48A2.516 2.516 0 0 1 14.52 12 2.519 2.519 0 0 1 12 14.52 2.519 2.519 0 0 1 9.48 12 2.519 2.519 0 0 1 12 9.48z" style="fill:#e64646;fill-opacity:1;fill-rule:nonzero;stroke:none;stroke-width:1.39327"/></svg>
